!!!!SEGMENT: pl-wtm--r-1499_stefani-jozef--oj-nie-to-to.krn
!!!id: 18xx:2231
!!!COM: Stefani, Józef
!!!COM-rism: pe30024097
!!!CDT: 1800/04/16-1876/03/19
!!!CNT: Polish
!!!OTL: Oj, nie to, to
!!!PDT:
!!!SMS-siglum: PL-Wtm
!!!SMS-shelfmark: R 1499
!!!NIFC-rismID: 1001120233
!!!URL-scan: http://repozytorium.nifc.pl/skany/pl-wtm-nut--r1499--r1500
!!!ONB-nifc: UWAGA: w zbiorze: 1. Oj, nie to, to! (Powiedz dziewczę na Boga!), 2. Sielanka
!!!SMS-variant:
!!!SMS-altvar:
**kern	**kern	**dynam	**kern	**text	**text	**text
*part2	*part2	*part2	*part1	*part1	*part1	*part1
*staff3	*staff2	*	*staff1	*staff1	*staff1	*staff1
*I"Fortepian	*I"Fortepian	*	*I"[Voice]	*	*	*
*clefF4	*clefG2	*	*clefG2	*	*	*
*k[b-]	*k[b-]	*	*k[b-]	*	*	*
*M3/8	*M3/8	*	*M3/8	*	*	*
*>[A,B,B,B]	*>[A,B,B,B]	*	*>[A,B,B,B]	*	*	*
=1	=1	=1	=1	=1	=1	=1
*>A	*>A	*	*>A	*	*	*
*all\right	*all\right	*	*all\right	*	*	*
*2\right	*2\right	*	*2\right	*	*	*
!	!	!	!LO:TX:a:i:t=Allegretto,	!	!	!
!	!	!LO:DY:rj	!	!	!	!
16.B-LL 16.BB-\	16.dd-XLL 16.g 16.f/	p	4.r	.	.	.
32B-JJk 32BB-\	32dd-JJk 32g 32f/	.	.	.	.	.
8B-L 8BB-\	8dd-L 8g 8f/	.	.	.	.	.
8B-J 8BB-\	8gJ 8f/	.	.	.	.	.
=2	=2	=2	=2	=2	=2	=2
4c 4C\	4cc 4a 4f/	.	4.r	.	.	.
8r	8r	f	.	.	.	.
=3	=3	=3	=3	=3	=3	=3
*tremolo	*	*	*	*	*	*
8cL 8B- 8G 8C\	(>16bn\LL	.	4.r	.	.	.
.	16cc\)	.	.	.	.	.
8c 8B- 8G 8C\	(>16cc#X\	.	.	.	.	.
.	16dd\)	.	.	.	.	.
8cJ 8B- 8G 8C\	(>16dd#X\	.	.	.	.	.
.	16ee\JJ)	.	.	.	.	.
*Xtremolo	*	*	*	*	*	*
=4	=4	=4	=4	=4	=4	=4
8c 8A 8F\	8ff\	.	4.r	.	.	.
8c 8G 8C\	8ccc 8ee 8cc\	.	.	.	.	.
8r	8r	.	.	.	.	.
!	!	!	!LO:TX:t=[segno]	!	!	!
=5||	=5||	=5||	=5||	=5||	=5||	=5||
*>B	*>B	*	*>B	*	*	*
*tremolo	*tremolo	*	*	*	*	*
!	!	!LO:DY:rj	!	!	!	!
8FL 8FF/	8aL 8f 8c/	p	16a/	1.) Po-	2.) Kie-	3.) Te-
.	.	.	16g/	-wiedz	-dy	-go
8F 8FF/	8a 8f 8c/	.	8f/	dziew-	ma-	smut-
8FJ 8FF/	8aJ 8f 8c/	.	8a/	-czę	-rzysz,	-ku
*Xtremolo	*Xtremolo	*	*	*	*	*
!!LO:LB:g=original
=6	=6	=6	=6	=6	=6	=6
8F 8FF/	8bn 8g#X 8f 8d^</	.	8bn^>\	na	tak	dziew-
8FL 8FF/	8ccL 8a 8f 8c/	.	8cc\	Bo-	rzew-	-czy-
8FJ 8FF/	8aJ 8f 8c/	.	8a/	-ga!	-nie,	-ny...
=7	=7	=7	=7	=7	=7	=7
*	*^	*	*	*	*	*
*tremolo	*	*	*	*	*	*	*
8CL 8CC/	16b-X/LL	8e 8c\	.	16b-X/	ZKąd-	To	Ah!
.	16a/JJ	.	.	16a/	-że	ci	przy-
8C 8CC/	8gL 8e 8c/	4ryy	.	8g/	roz-	Ko-	-cho-
8CJ 8CC/	8ccJ 8e 8c/	.	.	8cc\	-pacz	-tek	-dzi
=8	=8	=8	=8	=8	=8	=8	=8
8FL 8FF/	16a/LL	8c\	.	16a/LL	tak	znikł	myśl
.	16g#X/JJ	.	.	16g#X/JJ	.	.	.
8F 8FF/	8aL 8c/	4ryy	.	8a/	sro-	pew-	pło-
8FJ 8FF/	8fJ 8A/	.	.	8f/	-ga?	-nie?	-cha...
*Xtremolo	*	*	*	*	*	*	*
*	*v	*v	*	*	*	*	*
=9	=9	=9	=9	=9	=9	=9
8E 8EE/	8g 8c/	.	16g/	Mo-	Oj!	Two-
.	.	.	16cc\	-żeś	te	-je
8CL 8CC/	8eeL 8cc 8g/	.	8ee\	ró-	Ko-	ser-
8EJ 8EE/	8ccJ 8g/	.	8cc\	-żę,	-ty!	-ce
!!LO:LB:g=original
=10	=10	=10	=10	=10	=10	=10
*tremolo	*tremolo	*	*	*	*	*
8FL 8FF/	8aL 8f/	.	(>16a\LL	zgu-	te	już...
.	.	.	16cc#X\JJ)	.	.	.
8F 8FF/	8a 8f/	.	8dd\	-bi-	Ko-	Ko-
8FJ 8FF/	8aJ 8f/	.	8ccn\	-ła?,	-ty!	-cha
=11	=11	=11	=11	=11	=11	=11
8GL 8GG\	8gL 8f 8d/	.	16bn/	Co	Du-	Myśl
.	.	.	16a/	twe	-żo	się
8G 8GG\	8g 8f 8d/	.	8g/	ło-	ro-	cią-
8GJ 8GG\	8gJ 8f 8d/	.	8b/	-no	-bią	-gle
*Xtremolo	*Xtremolo	*	*	*	*	*
=12	=12	=12	=12	=12	=12	=12
4G 4GG\	8r	.	(>16ee\LL	zdo-	nam	na-
.	.	.	16dd\JJ)	.	.	.
.	8bnL 8g 8f 8d/	.	8bn\	-bi-	pso-	-prę-
8C 8CC/	8ccJ 8g 8e/	.	8cc\	-ła?	-ty!..	-ża
*clefG2	*	*	*	*	*	*
=13	=13	=13	=13	=13	=13	=13
*	*^	*	*	*	*	*
8gg 8dd 8g\	(16ccc/LL	8bbn 8gg\	.	4.r	.	.	.
.	16ddd/JJ)	.	.	.	.	.	.
8ee 8cc\	8ccc/	8gg\	.	.	.	.	.
8r	8r	8ryy	.	.	.	.	.
*	*v	*v	*	*	*	*	*
!!LO:LB:g=original
=14	=14	=14	=14	=14	=14	=14
*clefF4	*	*	*	*	*	*
*tremolo	*tremolo	*	*	*	*	*
!	!	!LO:DY:rj	!	!	!	!
8F#XL 8FF#X/	8aL 8d 8c/	fp	16dd\	Mo-	A-	ZKąd
.	.	.	16ee-X\	-że	-le	u
8F# 8FF#/	8a 8d 8c/	.	8dd\	sło-	wró-	diab-
8F#J 8FF#/	8aJ 8d 8c/	.	8cc\	-wik	-ci	-ła
=15	=15	=15	=15	=15	=15	=15
8GL 8GG\	8gL 8d 8B-/	.	(>16b-\LL	cię	na	wziąść
.	.	.	16cc\JJ)	.	.	.
8G 8GG\	8g 8d 8B-/	.	8dd\	smu-	sło-	mę-
8GJ 8GG\	8gJ 8d 8B-/	.	8b-\	-ci,	-wo!	-ża?
=16	=16	=16	=16	=16	=16	=16
!	!	!LO:DY:rj	!	!	!	!
8G#XL 8GG#X\	8bnL 8e 8d/	fp	16een\	Ze	Tyl-	Ser-
.	.	.	16ff\	swej	-ko	-ce
8G# 8GG#\	8b 8e 8d/	.	8ee\	lu-	z swo-	wal-
8G#J 8GG#\	8bJ 8e 8d/	.	8dd\	-béj	-ią	-czy
=17	=17	=17	=17	=17	=17	=17
8AL 8AA\	8aL 8e 8c/	.	(>16cc\LL	nie	po-	z tę-
.	.	.	16dd\JJ)	.	.	.
8A 8AA\	8a 8e 8c/	.	8ee\	nu-	-ło-	-skno-
8AJ 8AA\	8aJ 8e 8c/	.	8cc\	-ci	-wą	-tą?...
*Xtremolo	*Xtremolo	*	*	*	*	*
!!LO:PB:g=original
=18	=18	=18	=18	=18	=18	=18
16C 16CC\	16r	.	16b-/	Mo-	Roz-	Zga-
16rAA	16e 16c 16B-< 16G</	.	16a/	-że	-mó-	-dłeś
16C 16CC\	16r	.	16g/	desz-	-wi	zga-
16rAA	16e 16c 16B-< 16G</	.	16a/	-czyk,	się	-dłeś
16C 16CC\	16r	.	(<16b-/LL	lub	nie	Oj!
16rAA	16e 16c 16B-< 16G</	.	16cc/JJ)	.	.	.
=19	=19	=19	=19	=19	=19	=19
16F 16FF\	16r	.	8a/	bło-	cno-	to,
16r	16f 16c 16A</	.	.	.	.	.
*rep	*rep	*	*	*	*	*
16F 16FF\	16r	.	4ff\	-to?..	-tą,	to!
16r	16f 16c 16A</	.	.	.	.	.
*Xrep	*Xrep	*	*	*	*	*
*rep	*rep	*	*	*	*	*
16F 16FF\	16r	.	.	.	.	.
16r	16f 16c 16A</	.	.	.	.	.
*Xrep	*Xrep	*	*	*	*	*
=20	=20	=20	=20	=20	=20	=20
*	*	*	*^	*	*	*
*tremolo	*tremolo	*	*	*	*	*	*
8BB-L 8BBB-/	8gL 8f 8d-X/	.	16dd-X/	8dd-\	Oj!	Oj!	Zga-
.	.	.	16dd-/	.	.	.	-dłeś
8BB- 8BBB-/	8g 8f 8d-/	.	8dd-\	4ryy	nie	nie,	oj
8BB-J 8BBB-/	8gJ 8f 8d-/	.	8g/	.	to,	to,	to
*Xtremolo	*Xtremolo	*	*	*	*	*	*
*	*	*	*v	*v	*	*	*
=21	=21	=21	=21	=21	=21	=21
8C 8CC/	8a 8f 8c/	.	8cc\	to!	to!	to!
.	(<32qqddd/LLL	.	.	.	.	.
.	32qqccc/	.	.	.	.	.
.	32qqbbn/JJJ)	.	.	.	.	.
8r	8ccc\	.	8r	.	.	.
8r	8r	.	8r	.	.	.
!!LO:LB:g=original
=22	=22	=22	=22	=22	=22	=22
8C 8CC\	8e 8c 8B-< 8G</	.	(>16cc\LL	Oj!	Oj	Oj
.	.	.	16b-\JJ)	.	.	.
8r	8r	.	8d/	nie	nie	.
8C 8CC\	8e 8c 8B-< 8G</	.	8e/	to,	to,	to,
=23	=23	=23	=23	=23	=23	=23
8F 8FF\	8f 8c 8A</	.	4f/	to!!.	to!	to!
!	!	!LO:DY:rj	!	!	!	!
8F 8FF\	8ff 8cc 8a\	f	.	.	.	.
8r	8ccc\	f	8r	.	.	.
=24	=24	=24	=24	=24	=24	=24
!	!LO:TUP:a:problem:klamra łukowa	!	!	!	!	!
8C\L	24ccc\LL	.	4.r	.	.	.
.	24bbn\	.	.	.	.	.
.	24ddd\JJ	.	.	.	.	.
8c 8B- 8E\	8ccc\L	.	.	.	.	.
8cJ 8B- 8E\	8gg'>\J	.	.	.	.	.
=25	=25	=25	=25	=25	=25	=25
!LO:TX:t=P:problem:mixed beam	!LO:TUP:a:problem:klamra łukowa	!	!	!	!	!
8FF/L	24ccc\LL	.	4.r	.	.	.
.	24bbn\	.	.	.	.	.
.	24ddd\JJ	.	.	.	.	.
8c\ 8A\ 8F\	8ccc\L	.	.	.	.	.
8c\J 8A\ 8F\	8aa'>\J	.	.	.	.	.
!!LO:LB:g=original
=26	=26	=26	=26	=26	=26	=26
!	!LO:TUP:a:problem:klamra łukowa	!	!	!	!	!
8BB-\L	24gg\LL	.	4.r	.	.	.
.	24aa\	.	.	.	.	.
.	24bb-\JJ	.	.	.	.	.
8A 8F 8C\	8cc\L	.	.	.	.	.
8B-J 8G 8C\	8eet\J	.	.	.	.	.
=27	=27	=27	=27	=27	=27	=27
8A 8F\	8ff\	.	4.r	.	.	.
8F 8FF/	8fff 8aa 8ff\	.	.	.	.	.
8r	8r	.	.	.	.	.
!	!LO:TX:t=[segno]	!	!LO:TX:t=[segno]	!	!	!
==	==	==	==	==	==	==
*-	*-	*-	*-	*-	*-	*-
!!!system-decoration: s1{(s2,s3)}
!!!RDF**kern: > = above
!!!RDF**kern: < = below
!!!EED: Antoni Szymański
!!!EST: 2021-06-05
!!!ENC: Andrzej Gręziak
!!!END: 2021-05-20
